remix/Media/skip-forward-line.svg

<svg viewBox="0 0 24 24" fill="currentColor" xmlns="http://www.w3.org/2000/svg"><path d="M16 12.6667L5.77735 19.4818C5.54759 19.6349 5.23715 19.5729 5.08397 19.3431C5.02922 19.261 5 19.1645 5 19.0657V4.93426C5 4.65812 5.22386 4.43426 5.5 4.43426C5.59871 4.43426 5.69522 4.46348 5.77735 4.51823L16 11.3333V5C16 4.44772 16.4477 4 17 4C17.5523 4 18 4.44772 18 5V19C18 19.5523 17.5523 20 17 20C16.4477 20 16 19.5523 16 19V12.6667ZM7 7.73703V16.263L13.3944 12L7 7.73703Z"/></svg>

<svg viewBox="0 0 24 24" xmlns="http://www.w3.org/2000/svg"><path fill="none" d="M0 0h24v24H0Z"/><path d="M16 12.667l-10.23 6.81h0c-.23.15-.55.09-.7-.14 -.06-.09-.09-.18-.09-.28V4.91 4.91c0-.28.22-.5.5-.5 .09 0 .19.02.27.08l10.22 6.815V4.97v0c0-.56.44-1 1-1 .55 0 1 .44 1 1v14 0c0 .55-.45 1-1 1 -.56 0-1-.45-1-1V12.64Zm-9-4.93v8.526l6.394-4.27L7 7.73Z"/></svg>
